X: 37915
T: Southern Cross
R: jig
M: 6/8
K: Gmajor
|:BGD E2D|DEG {B}AGE|BGD EDE|GAB c2d|
BGD ~E2D|DEG {B}AGE|F/G/ AB {B}cBA|GED E3:|
ee/e/e efg|fed ed B|e/ e/ ee efg|fed e2B|
ee/e/e efg|age edB|dBA ABd|ezg fed|
ee/e/e efg|fed ed B|e/ e/ ee efg|fed e2B|
e/e/ee efg|age edB|dBA ABd|e2z edc|

